X:1
T:Men's Clothes I Will Put On
T:Oh Who will shoe my Foot?
B:Randolph, V, 1982. Ozark Folksongs, Illinois Press, Urbana
S:Linnie Bullard, Pineville, Mo., July 7, 1926
Z:Randolph, V
F:http://www.folkinfo.org/songs
M:2/4     %Meter
L:1/16     %
K:Eb
E3F G2F2 |E2 B4 G2 |F2E2 C2C2 |C6
w:"Hark, th' drums are beat-in', no long-er can I stay,  
 B2 |c2B2 e2e2 |c2 c4 c2 |G2A2 G2^F2 |G6
w:I hear th' trum-pet sound-in', my love, I must a-way; 
 GG |c2c2 e2d2 |c6 c2 |GG3 (G2F2) |G6 
w:We are or-dered from Forts-mouth for man-y long_ miles,  
G2 |F2E2 F2G2 |B4 G2GF |(E2C2) C3B, |C8 |]
w:To j'ine th' Brit-ish ar-my on th' banks_ of th' Nile."